X: 6
T: The Mountain Lark
R: reel
M: 4/4
L: 1/8
K: Edor
FE~E2 FEDE|FE~E2 FBBA|FE~E2 FEDB,| ~D3E FBBA|
FE~E2 FEDE|FE~E2 FBBA|FE~E2 FEDB,| ~D3E FA~A2||
Be~e2 feed|Beec dBcA|Be~e2 fded|~B3c dcBA|
Be~e2 feed|egfe d3e|fdec dcBA|~B3c dcBA||


Tune 884	Setting 14072

